X: 3181
T: The WEAVER HAS A DOCHTER
Q: "Strathspey."
R: Strathspey.
%R: strathspey
B: James Kerr "Merry Melodies" v.3 p.21 #181
Z: 2016 John Chambers <jc:trillian.mit.edu>
M: C
L: 1/8
K: Gm
ud |\
B<GG>A B<FF>d | B<GG<F e3g |\
f>ed>c B>AF>e | d>cB>A {^F}G2-G :|
|: ^f |\
g<dd>=e =f<cc>^f | g<dd>g d>ba>g |\
f>dd>c B>GF>e | d>cB>A {^F}G2-G :|

%%sep 1 1 500
%%sep 1 1 500

